Simply-Black-Circles/scalable/apps/pitivi.svg

<svg xmlns="http://www.w3.org/2000/svg" width="48" height="48" viewBox="0 0 12.7 12.7"><path fill="#1a1a1a" d="M6.344.073a6.29 6.29 0 0 0-6.29 6.29 6.29 6.29 0 0 0 6.29 6.288 6.29 6.29 0 0 0 6.29-6.289 6.29 6.29 0 0 0-6.29-6.29zm-.018.936a5.407 5.407 0 0 1 5.407 5.407 5.407 5.407 0 0 1-5.407 5.407A5.407 5.407 0 0 1 .92 6.416 5.407 5.407 0 0 1 6.326 1.01zm2.925 1.362a.257.257 0 0 0-.1.012L2.815 4.5a.253.253 0 0 0-.16.32l.15.45a.758.758 0 0 0 .146 1.22v3.587c0 .14.113.254.253.254h6.68c.14 0 .253-.114.253-.254v-4.34h-6.06a.755.755 0 0 0-.124-.332L9.777 3.46l-.305-.916a.254.254 0 0 0-.221-.173zm-.691.509l-.186.75-.77.257.185-.75.77-.257zm-1.905.636l-.186.75-.77.257.184-.75.772-.257zm-1.905.636l-.185.75-.771.257.185-.75.771-.257zM3.322 5.439a.387.387 0 1 1 0 .775.387.387 0 0 1 0-.775zm1.015.502h.813l-.414.652h-.813l.414-.652zm2.008 0h.813l-.414.652h-.812l.413-.652zm2.008 0h.813l-.413.652H7.94l.413-.652zM6.145 7.373l1.371.86-1.37.861V7.373z"/></svg>

<?xml version="1.0" encoding="UTF-8" standalone="no"?>
<svg
   xmlns:dc="http://purl.org/dc/elements/1.1/"
   xmlns:cc="http://creativecommons.org/ns#"
   xmlns:rdf="http://www.w3.org/1999/02/22-rdf-syntax-ns#"
   xmlns:svg="http://www.w3.org/2000/svg"
   xmlns="http://www.w3.org/2000/svg"
   xmlns:sodipodi="http://sodipodi.sourceforge.net/DTD/sodipodi-0.dtd"
   xmlns:inkscape="http://www.inkscape.org/namespaces/inkscape"
   width="48"
   height="48"
   viewBox="0 0 12.7 12.7"
   version="1.1"
   id="svg4"
   sodipodi:docname="pitivi.svg"
   inkscape:version="0.92.4 (5da689c313, 2019-01-14)">
  <metadata
     id="metadata10">
    <rdf:RDF>
      <cc:Work
         rdf:about="">
        <dc:format>image/svg+xml</dc:format>
        <dc:type
           rdf:resource="http://purl.org/dc/dcmitype/StillImage" />
        <dc:title></dc:title>
      </cc:Work>
    </rdf:RDF>
  </metadata>
  <defs
     id="defs8" />
  <sodipodi:namedview
     pagecolor="#ffffff"
     bordercolor="#666666"
     borderopacity="1"
     objecttolerance="10"
     gridtolerance="10"
     guidetolerance="10"
     inkscape:pageopacity="0"
     inkscape:pageshadow="2"
     inkscape:window-width="1087"
     inkscape:window-height="480"
     id="namedview6"
     showgrid="false"
     inkscape:zoom="4.9166667"
     inkscape:cx="2.1355932"
     inkscape:cy="24"
     inkscape:window-x="0"
     inkscape:window-y="25"
     inkscape:window-maximized="0"
     inkscape:current-layer="svg4" />
  <path
     d="m 6.344,0.073 a 6.29,6.29 0 0 0 -6.29,6.29 6.29,6.29 0 0 0 6.29,6.288 6.29,6.29 0 0 0 6.29,-6.289 6.29,6.29 0 0 0 -6.29,-6.29 z M 6.326,1.009 A 5.407,5.407 0 0 1 11.733,6.416 5.407,5.407 0 0 1 6.326,11.823 5.407,5.407 0 0 1 0.92,6.416 5.407,5.407 0 0 1 6.326,1.01 Z m 2.925,1.362 a 0.257,0.257 0 0 0 -0.1,0.012 L 2.815,4.5 a 0.253,0.253 0 0 0 -0.16,0.32 l 0.15,0.45 a 0.758,0.758 0 0 0 0.146,1.22 v 3.587 c 0,0.14 0.113,0.254 0.253,0.254 h 6.68 c 0.14,0 0.253,-0.114 0.253,-0.254 V 5.737 H 4.077 A 0.755,0.755 0 0 0 3.953,5.405 L 9.777,3.46 9.472,2.544 A 0.254,0.254 0 0 0 9.251,2.371 Z M 8.56,2.88 8.374,3.63 7.604,3.887 7.789,3.137 8.559,2.88 Z M 6.655,3.516 6.469,4.266 5.699,4.523 5.883,3.773 Z M 4.75,4.152 4.565,4.902 3.794,5.159 3.979,4.409 Z M 3.322,5.439 a 0.3875,0.3875 0 1 1 0,0.775 0.3875,0.3875 0 0 1 0,-0.775 z M 4.337,5.941 H 5.15 L 4.736,6.593 H 3.923 Z m 2.008,0 H 7.158 L 6.744,6.593 H 5.932 Z m 2.008,0 H 9.166 L 8.753,6.593 H 7.94 Z M 6.145,7.373 7.516,8.233 6.146,9.094 V 7.373 Z"
     id="path2"
     inkscape:connector-curvature="0"
     style="fill:#1a1a1a" />
</svg>
